public/operators/nobg/pinnacle.svg

<svg width="113" height="27" viewBox="0 0 113 27" fill="none" xmlns="http://www.w3.org/2000/svg">
<path d="M0 27.0063H113V23.4528H0V27.0063Z" fill="#EB622B"/>
<path d="M93.0156 1.13335H88.6382V19.2123H100.09V15.081H93.0156V1.13335Z" fill="white"/>
<path d="M113 5.13667V1.13335H101.198V19.2123H113V15.1907H105.556V12.1196H113V8.11632H105.556V5.13667H113Z" fill="white"/>
<path d="M6.92628 1.13335H0V19.194H4.37741V14.4412H6.90781C11.2298 14.4412 13.9264 11.3702 13.9264 7.73244C13.9264 4.13127 11.2113 1.13335 6.92628 1.13335ZM6.76005 10.4562H4.37741V5.08183H6.76005C8.33001 5.08183 9.5121 6.17863 9.5121 7.78728C9.5121 9.37764 8.33001 10.4562 6.76005 10.4562Z" fill="white"/>
<path d="M19.4489 1.13335H15.053V19.194H19.4489V1.13335Z" fill="white"/>
<path d="M33.1352 11.9551L25.4147 1.13335H20.7603V19.2123H25.1007V7.65932L33.1352 19.2123H37.4572V1.13335H33.1352V11.9551Z" fill="white"/>
<path d="M63.2417 0L54.0251 19.2123H59.1044L60.0279 17.2381H66.7695L67.693 19.2123H72.7908L63.5557 0H63.2417ZM61.7641 13.4907L63.4079 9.94434L65.0518 13.4907H61.7641Z" fill="white"/>
<path d="M79.3105 15.1724C76.4107 15.1724 74.4344 12.924 74.4344 10.182C74.4344 7.38513 76.4662 5.13669 79.366 5.13669C81.3607 5.13669 82.8199 6.16037 83.6325 7.75073L87.4559 5.35605C85.8305 2.68716 82.8568 0.914001 79.329 0.914001C73.9542 0.914001 69.9832 4.91733 69.9832 10.2003C69.9832 10.2185 69.9832 10.2368 69.9832 10.2551L73.5294 17.6402C75.0624 18.7919 77.0387 19.4865 79.329 19.4865C83.2262 19.4865 86.1999 17.3843 87.7514 14.3864L83.7249 12.2476C82.9861 13.9294 81.49 15.1724 79.3105 15.1724Z" fill="white"/>
<path d="M55.5208 1.15164H51.1804V11.9551L43.4783 1.15164H38.8054V19.2123H43.1644V7.65933L51.1804 19.2123H52.5102L52.6949 18.7919L55.5208 12.9423V1.15164Z" fill="white"/>
</svg>

<svg xmlns="http://www.w3.org/2000/svg" width="113" height="27" fill="none"><path fill="#EB622B" d="M0 27h113v-3.55H0v3.56Z"/><path fill="#fff" d="M93.02 1.13h-4.38v18.08h11.45v-4.13h-7.07V1.13ZM113 5.14v-4h-11.8V19.2H113V15.2h-7.44v-3.07H113v-4h-7.44V5.14H113ZM6.93 1.13H0V19.2h4.38v-4.75H6.9c4.32 0 7.02-3.07 7.02-6.7 0-3.6-2.72-6.6-7-6.6Zm-.17 9.33H4.38V5.08h2.38c1.57 0 2.75 1.1 2.75 2.7s-1.18 2.68-2.75 2.68ZM19.45 1.13h-4.4V19.2h4.4V1.13ZM33.14 11.96 25.4 1.13h-4.65v18.08h4.34V7.66l8.04 11.55h4.32V1.13h-4.32v10.83ZM63.24 0l-9.21 19.21h5.07l.93-1.97h6.74l.92 1.97h5.1L63.56 0h-.32Zm-1.48 13.5 1.65-3.56 1.64 3.55h-3.29ZM79.31 15.17a4.81 4.81 0 0 1-4.88-4.99c0-2.8 2.04-5.04 4.94-5.04 2 0 3.45 1.02 4.26 2.61l3.83-2.4A9.39 9.39 0 0 0 79.33.92a9.1 9.1 0 0 0-9.35 9.29v.06l3.55 7.38a9.53 9.53 0 0 0 5.8 1.85c3.9 0 6.87-2.1 8.42-5.1l-4.03-2.14a4.66 4.66 0 0 1-4.4 2.92ZM55.52 1.15h-4.34v10.8l-7.7-10.8H38.8v18.06h4.35V7.66l8.02 11.55h1.33l.18-.42 2.83-5.85V1.15Z"/></svg>
